X:172
T:RVW2/2/172 Fountains Flowing
C:Mr. Kemp, Herongate, Essex, 26 October 1904
L:1/8
Q:1/4=60
M:3/4
I:linebreak $
K:D
"^(Editorial suggestion)  " A (B/c/) d | cd A>A AD | FA z :|$"^(a)" F G>A | BB EB AD | C D z |:$ 
w: Our cap- * tain|calls all hands on board to-|mor- row|so hap- ly|may we live at the next|meet- ing.|
w: leav- ing _ my|dear to mourn and weep in|sor- row||||
w: dry up _ those|liv- ing tears and leave off|weep- ing||||
A B/c/ d | cd A>A AD | F A z :|$"^(a) var.""^[last verse]" F (G/A/) (B/A/) | FF EB AD | C D z |] 
w: |||To e- * ver- *|las- ting joy and foun- tains|flow- ing.|
w: ||||||
w: ||||||



